lib/svgs/strike-through.svg

<?xml version="1.0" encoding="UTF-8"?>
<svg width="16px" height="16px" viewBox="0 0 16 16" version="1.1" xmlns="http://www.w3.org/2000/svg" xmlns:xlink="http://www.w3.org/1999/xlink">
    <!-- Generator: sketchtool 51.3 (57544) - http://www.bohemiancoding.com/sketch -->
    <title>editor/strike-through</title>
    <desc>Created with sketchtool.</desc>
    <defs></defs>
    <g id="Icons" stroke="none" stroke-width="1" fill="none" fill-rule="evenodd">
        <g id="Web" transform="translate(-576.000000, -1424.000000)" fill="#000000">
            <g id="editor/strike-through" transform="translate(576.000000, 1424.000000)">
                <path d="M9.25377048,8.60004883 L1.15,8.60004883 C0.791014913,8.60004883 0.5,8.30903392 0.5,7.95004883 C0.5,7.59106374 0.791014913,7.30004883 1.15,7.30004883 L4.91894474,7.30004883 C4.64011047,7.16027745 4.38787345,7.00781201 4.16223145,6.84265137 C3.72806586,6.52486006 3.39908966,6.14664933 3.17529297,5.70800781 C2.95149628,5.2693663 2.83959961,4.75464163 2.83959961,4.16381836 C2.83959961,3.6267063 2.95821008,3.1164575 3.19543457,2.63305664 C3.43265906,2.14965579 3.77282493,1.72892432 4.21594238,1.37084961 C4.65905983,1.0127749 5.19616384,0.728557367 5.82727051,0.518188477 C6.45837718,0.307819586 7.16780205,0.202636719 7.95556641,0.202636719 C8.79704197,0.202636719 9.55122551,0.312295453 10.2181396,0.531616211 C10.8850538,0.750936969 11.449013,1.0552959 11.9100342,1.44470215 C12.3710554,1.83410839 12.7224109,2.29288473 12.9641113,2.82104492 C13.2058118,3.34920511 13.3266602,3.92211605 13.3266602,4.53979492 L11.715332,4.53979492 C11.715332,4.16381648 11.6325285,3.79679541 11.4669189,3.4387207 C11.3013094,3.080646 11.0596126,2.76509739 10.7418213,2.49206543 C10.42403,2.21903347 10.0301537,1.99747806 9.56018066,1.82739258 C9.09020761,1.65730709 8.55534154,1.57226562 7.95556641,1.57226562 C7.32893567,1.57226562 6.7940696,1.64835536 6.35095215,1.80053711 C5.9078347,1.95271886 5.5452895,2.14965699 5.26330566,2.39135742 C4.98132183,2.63305785 4.77543196,2.90384778 4.64562988,3.20373535 C4.5158278,3.50362292 4.45092773,3.80574392 4.45092773,4.11010742 C4.45092773,4.43237466 4.50016227,4.72554393 4.59863281,4.98962402 C4.69710336,5.25370412 4.88732769,5.49987679 5.16931152,5.72814941 C5.45129536,5.95642204 5.84517162,6.16678777 6.35095215,6.35925293 C6.85673267,6.55171808 7.51692301,6.74194242 8.33154297,6.92993164 C8.82682613,7.04617157 9.28358668,7.16954355 9.70182868,7.30004883 L15.15,7.30004883 C15.5089851,7.30004883 15.8,7.59106374 15.8,7.95004883 C15.8,8.30903392 15.5089851,8.60004883 15.15,8.60004883 L12.2862426,8.60004883 C12.6485025,8.92221213 12.9214535,9.28530322 13.1051025,9.68933105 C13.3065196,10.1324485 13.4072266,10.6449352 13.4072266,11.2268066 C13.4072266,11.8265818 13.2819023,12.3748754 13.03125,12.8717041 C12.7805977,13.3685328 12.4225284,13.7937401 11.9570312,14.1473389 C11.4915341,14.5009376 10.9275749,14.7762034 10.2651367,14.9731445 C9.60269851,15.1700856 8.86418051,15.2685547 8.04956055,15.2685547 C7.12751818,15.2685547 6.31291044,15.1499442 5.60571289,14.9127197 C4.89851534,14.6754952 4.30322507,14.3554708 3.81982422,13.9526367 C3.33642336,13.5498027 2.97164023,13.0865505 2.72546387,12.5628662 C2.47928751,12.039182 2.35620117,11.4953641 2.35620117,10.9313965 L3.9675293,10.9313965 C4.00333677,11.504316 4.15104037,11.9809958 4.41064453,12.3614502 C4.67024869,12.7419046 4.9925111,13.0462635 5.37744141,13.2745361 C5.76237172,13.5028088 6.18981699,13.6661779 6.65979004,13.7646484 C7.12976309,13.863119 7.5930153,13.9123535 8.04956055,13.9123535 C8.65828755,13.9123535 9.19539155,13.8407396 9.66088867,13.6975098 C10.1263858,13.5542799 10.5180241,13.3618176 10.8358154,13.1201172 C11.1536067,12.8784168 11.3930656,12.600913 11.5541992,12.2875977 C11.7153328,11.9742823 11.7958984,11.647544 11.7958984,11.307373 C11.7958984,11.0119614 11.744426,10.7165542 11.6414795,10.4211426 C11.538533,10.1257309 11.3460707,9.84598928 11.0640869,9.58190918 C10.7821031,9.31782908 10.3882268,9.07165641 9.88244629,8.84338379 C9.69375579,8.75822259 9.48419752,8.67711104 9.25377048,8.60004883 Z" id="Shape"></path>
            </g>
        </g>
    </g>
</svg>

<svg xmlns="http://www.w3.org/2000/svg" viewBox="0 0 16 16">
    <path d="M9.254 8.6H1.15a.65.65 0 1 1 0-1.3h3.769a5.297 5.297 0 0 1-.757-.457 3.21 3.21 0 0 1-.987-1.135 3.356 3.356 0 0 1-.335-1.544c0-.537.118-1.048.355-1.53a3.72 3.72 0 0 1 1.02-1.263c.444-.358.981-.642 1.612-.853A6.709 6.709 0 0 1 7.956.203c.841 0 1.595.11 2.262.329.667.219 1.231.523 1.692.913a3.924 3.924 0 0 1 1.417 3.095h-1.612c0-.376-.082-.743-.248-1.101a2.779 2.779 0 0 0-.725-.947 3.752 3.752 0 0 0-1.182-.665 4.697 4.697 0 0 0-1.604-.255c-.627 0-1.162.076-1.605.229a3.3 3.3 0 0 0-1.088.59 2.247 2.247 0 0 0-.812 1.72c0 .321.05.615.148.879.098.264.288.51.57.738.282.228.676.439 1.182.631.506.193 1.166.383 1.98.57.496.117.953.24 1.37.371h5.449a.65.65 0 1 1 0 1.3h-2.864a3.259 3.259 0 0 1 1.121 2.627 3.6 3.6 0 0 1-1.45 2.92 5.234 5.234 0 0 1-1.692.826 7.761 7.761 0 0 1-2.215.296 7.679 7.679 0 0 1-2.444-.356 5.478 5.478 0 0 1-1.786-.96 4.041 4.041 0 0 1-1.095-1.39 3.792 3.792 0 0 1-.369-1.632h1.612a2.801 2.801 0 0 0 1.41 2.344 4.17 4.17 0 0 0 1.282.49c.47.098.933.147 1.39.147.608 0 1.145-.071 1.61-.214a3.74 3.74 0 0 0 1.176-.578c.318-.242.557-.52.718-.832.161-.314.242-.64.242-.98 0-.296-.052-.591-.155-.887a2.118 2.118 0 0 0-.577-.84 4.336 4.336 0 0 0-1.182-.738 6.69 6.69 0 0 0-.628-.243z"/>
</svg>
